/* XPM */
static char * veyon_icon_xpm[] = {
"48 48 97 2",
"   c None",
"aa c #FFFFFF",
"ab c #FFFEFE",
"ac c #FEFEFE",
"ad c #FDFDFC",
"ae c #FBFAF4",
"af c #FEFDFB",
"ag c #FFFDFC",
"ah c #F9F5DC",
"ai c #E4D34F",
"aj c #A09056",
"ak c #ECE3E7",
"al c #EDEAD8",
"am c #D3C681",
"an c #AC8C07",
"ao c #5B5624",
"ap c #C0B78E",
"aq c #F1ECD0",
"ar c #FEFFFF",
"as c #FEFEFC",
"at c #C5AD42",
"au c #B6980D",
"av c #B09941",
"aw c #FFFFFE",
"ax c #FFFFFB",
"ay c #FDFEFE",
"az c #6F581D",
"aA c #5E430E",
"aB c #FDFDFE",
"aC c #FBF8D8",
"aD c #E3D7A1",
"aE c #CDB95C",
"aF c #A7A57B",
"aG c #AD9A5B",
"aH c #F4F0CD",
"aI c #EADF7A",
"aJ c #ECE5D5",
"aK c #FEFEFD",
"aL c #FFFFFD",
"aM c #BFA425",
"aN c #875C20",
"aO c #B3A245",
"aP c #957600",
"aQ c #CABB76",
"aR c #FCFAEA",
"aS c #FAF15F",
"aT c #8D9271",
"aU c #E6DCDC",
"aV c #F5F2F0",
"aW c #FAF9FA",
"aX c #E8E0DB",
"aY c #907620",
"aZ c #F1EDE1",
"a0 c #5E7041",
"a1 c #DDDCCE",
"a2 c #F3F0DF",
"a3 c #8B6B01",
"a4 c #F1EEEC",
"a5 c #FBFBFC",
"a6 c #E4D77A",
"a7 c #EAE6B9",
"a8 c #CCCAB3",
"a9 c #BEA747",
"a! c #F8F3B5",
"a# c #E2D276",
"a$ c #F9F7F1",
"a% c #CFB634",
"a& c #FEFEFF",
"a( c #FEFDF4",
"a) c #CEBBB0",
"a* c #FEFDFD",
"a+ c #D4D2C2",
"a, c #F6F4EF",
"a- c #E4DCAF",
"a. c #EBE1AA",
"a/ c #FFFEFD",
"a: c #C1AC9A",
"a; c #7D835B",
"a< c #E1D8CD",
"a= c #998128",
"a> c #F1E76C",
"a? c #E6D85B",
"a@ c #FDFCFB",
"a[ c #7C6F34",
"a] c #DBC759",
"a^ c #F2EAAD",
"a_ c #B5A298",
"a` c #FFFFDA",
"a{ c #FAF8F1",
"a| c #ECDE5B",
"a} c #B89A9F",
"a~ c #DFD1AF",
"ba c #F7F4D7",
"bb c #894338",
"bc c #B18C5B",
"bd c #DDCBBA",
"be c #FEFFFE",
"                                                                                                ",
"                                                                                                ",
"                                                                                                ",
"                                      aaaaaaaaabacaaaaaaaa                                      ",
"                                aaaaaaaaaaaaaaaaaaaaaaaaaaaaaaaa                                ",
"                            aaaaaaaaaaaaaaadaaaeaeaaafaaaaaaaaaaaaaa                            ",
"                        aaaaaaaaaaaaaaaaagaaahaiajakaaagaaaaaaaaaaaaaaaa                        ",
"                      aaaaaaaaaaaaaaaaacaaalamanaoapaqarabaaaaaaaaaaaaaaaa                      ",
"                    aaaaaaaaaaaaaaaaasafahamatauaoavamahafasaaaaaaaaaaaaaaaa                    ",
"                  aaaaaaaaaaaaaaawaxayaaamatauajazaAajamaaaaagawaaaaaaaaaaaaaa                  ",
"                aaaaaaaaaaaaaaawaaaBaCaDaqaEazaFaGaAajaHaIaJaaaaaKaaaaaaaaaaaaaa                ",
"              aaaaaaaaaaaaaaaLaaafaIaMaAaNavaGavajaGaOanaPanaQaeaaaKaaaaaaaaaaaaaa              ",
"            aaaaaaaaaaaaaaaLaaaRaSanaAaTaUaVaaaVaVaaaWaXapaYaPavaZaaaKaaaaaaaaaaaaaa            ",
"            aaaaaaaaaaaaawabaRaSaPa0a1aaaRaxaraRaCaaaLaaaaa2ava3ava4awacaaaaaaaaaaaa            ",
"          aaaaaaaaaaaaawaLa5aSaPa0aHaIa6a6afaHaSaia7afaKa8a8aLa9aPaGa5aKabaaaaaaaaaaaa          ",
"          aaaaaaaaaaaaaLara!auaoa2aIaia#a$aaaha%anaqa&aaa1ajaFa(ata3a)aaa*aaaaaaaaaaaa          ",
"        aaaaaaaaaaaaawaaaRa%aAa+aIaia#a,aaaaaRa-a.aCaaaaa/a:a;a<a7ana=a4aaacaaaaaaaaaaaa        ",
"        aaaaaaaaaaaaafa/aCa3a;a!a>a?a7aaaWaWaWaaaaa@aWaWayaaapa[aaa]aza1axa@awaaaaaaaaaa        ",
"        aaaaaaaaawawawama7aOa)a^a>a#aWa/a$a4aUaVa4a+a<aka@a@a1a;a8a^ava7a#axa&awaaaaaaaa        ",
"      aaaaaaaaawa&aeamataMava-aSa>a.aaawaVakaUakaUa+a<akaWaaaZa[a_a`ata%aEama{aaawaaaaaaaa      ",
"      aaaaaaaLaaa(a6aEauaAa=a.a|a?a-aaaaaVakaUakakakakakaaa&a,aFaTaqaManaPata6a$aaaLaaaaaa      ",
"      aaaaaBaxaaaIauana3a;a9aQa?a?aqaaaaa4aWakaUakaUakakaaaBafaFa0aDa9aEauaua3aFaaadaBaaaa      ",
"      aaaaaaaKaaaDazaoa3avavama>a6aHawaaaVa<a)a<a<a}a)aUaaacaZaja;a~a9aSaPazaza)aaaKaaaaaa      ",
"      aaaaaaaaawaaa~aEaNaAa=a7a|aIa.awa/aaa_a}a}a}a}a}aVaaa&a<a[aTaZa%aPazaEa-aaawaaaaaaaa      ",
"      aaaaaaaaawa&axa-aEaGaOa~aia>a|aqaaaXa}a)a<a<a)a}aUada@a8aoa_a7a9aEaEa.aKaaawaaaaaaaa      ",
"      aaaaaaaaaaaaa*aaaDbaata:a!a>aia7a5a}bbbba}a}bbbba}aba8a;aFa1a^avbaa.aaacaaaaaaaaaaaa      ",
"      aaaaaaaaaaaaawafaaaHana[baa]aIa>apbbbcbba)bdbbbbbca:aFa;aFa,aia3a1aaa@aaaaaaaaaaaaaa      ",
"      aaaaaaaaaaawawawaKa@a9a3a:a5a2a7ajaoaAa_a)a)aFa[a[a;apalaVa!aua[aWasaaacaKaaaaaaaaaa      ",
"      aaaaaaaaaaaaaaaaaKaaa7aPaYaFa;aFa0aoa0a;a1a<a;a0aoa0a;a0amaiaza+aaaKaaaaaaaaaaaaaaaa      ",
"        aaaaaaaba2a2awawasaaama3aYa8a1aTa0aTa0a8a8aoa0aTaTa1a7aSa3aFaaadabaaala7asaaaaaa        ",
"        aaaaaaaeaQamaaabawaBaaaQa3a=a.aZa+aTa0a1a4a;aFa+aZa!aia3aTaaadawacaBama9a,aaaaaa        ",
"        aaaaaaaaa<aEa2awaKawaKaaaQa3aPaOaDaqaxaHa7a(aHaDaiauazaFaaacawabaaalaQa~afaaaaaa        ",
"          aaaaaaalaQa#aaasaaawa*aaa7avaAavatauavavauavaOa3a[a+aaaBacaabea@a~aEaRaaaaaa          ",
"          aaaaaLaaa~a%a.arasaaaaa*aaa(a1ala]anava|aPa=aqaJa@aaaBaaaaasaxalaEa7aaaaaaaa          ",
"            aaaaaLa$amaEbaaaabaaaaasadaaaDaEaPaPanaAaGamaaasadaaaaafaaa2a#aDa{aaaaaa            ",
"            aaaaaaaaa2ama#baaaaLawaaawa@acaDaGaMaAajaDaxasawaaawawaaaHaHaDa2aaaaaaaa            ",
"              aaaaafaaa2a#a%aRa&aaabaaawaba{a.aPaAapa(aBawawaLaaaaa^a]a#aaaBaaaaaa              ",
"                aaaaadaaa,aDaHaIaRaaaaaaaxaaa@apaFaeaaasaLaaaaaRaDa]a6a,afaLaaaa                ",
"                  aaaaagaaaaa7a#a?a^aRaxaaaaaaaaaaaaaaaaaabaa^a?a?a.aVaaa*aaaa                  ",
"                    aaaaaaafaaa2aDa#a>a.a^a!aHahaCaCaRaHaIa|a>a6aha5aaaaaaaa                    ",
"                      aaaaaaaaaaa@aZa.a6a?aIa6a>a|a#aIa^aIaHbaaBaaaaaaaaaa                      ",
"                        aaaaaaaaaaaaaaaWaea,baaHa^aqaha5aBaaaaaaaaaaaaaa                        ",
"                            aaaaaaaaaaaaaaaaaaaaaaaaaaaaaaaaaaaaaaaa                            ",
"                                aaaaaaaaaLaaaaaaaaaaaaaaaaa&aaaa                                ",
"                                      aaaaaaaaaaaaaaaaaaaa                                      ",
"                                                                                                ",
"                                                                                                ",
"                                                                                                "
};
